X:7903
T:Prelude
T:Op. 28 no. 7
C:Fr\'ed\'eric Chopin
O:France
Z:Transcribed by Frank Nordberg - http://www.musicaviva.com
F:http://abc.musicaviva.com/tunes/chopin-frederic/chopin-prelude-28-07-1.abc
M:3/4
L:1/8
K:G
"^Andant|no"D2|B>cA2A2|A4e2|^c>dg2g2|g4B2|
^G>Ac2c2|c4F2|F>GB2B2|B4D2|
B>cA2A2|A4e2|^c>db2b2|b4B2|
B>ce2e2|e4F2|A>Gg2g2|g4z2|]
W:
W:
W:  From Musica Viva - http://www.musicaviva.com
W:  the Internet center for free sheet music downloads.
